;FLAVOR:RepRap
;TIME:342
;Filament used: 0.0462313m
;Layer height: 0.1
;Generated with Cura_SteamEngine 2.6.2-14-Moai Edition
G28 ;Home
;LAYER_COUNT:100
;LAYER:0
M107
G0 F18000 X55.099 Y64.949 Z0.1
;TYPE:WALL-INNER
G1 F18000 X64.949 Y64.949 E0.02744
G1 X64.949 Y55.099 E0.05488
G1 X65.051 Y55.099 E0.05516
G1 X65.051 Y64.949 E0.0826
G1 X74.901 Y64.949 E0.11003
G1 X74.901 Y65.051 E0.11032
G1 X65.051 Y65.051 E0.13776
G1 X65.051 Y74.901 E0.16519
G1 X64.949 Y74.901 E0.16548
G1 X64.949 Y65.051 E0.19292
G1 X55.099 Y65.051 E0.22035
G1 X55.099 Y64.949 E0.22064
G1 X64.949 Y55.099 E0.05488
G1 X65.051 Y55.099 E0.05516
G1 X65.051 Y64.949 E0.0826
G1 X74.901 Y64.949 E0.11003
G1 X74.901 Y65.051 E0.11032
G1 X65.051 Y65.051 E0.13776
G1 X65.051 Y74.901 E0.16519
G1 X64.949 Y74.901 E0.16548
G1 X64.949 Y65.051 E0.19292
G1 X55.099 Y65.051 E0.22035
G1 X55.099 Y64.949 E0.22064
G1 X64.949 Y55.099 E0.05488
G1 X65.051 Y55.099 E0.05516
G1 X65.051 Y64.949 E0.0826
G1 X74.901 Y64.949 E0.11003
G1 X74.901 Y65.051 E0.11032
G1 X65.051 Y65.051 E0.13776
G1 X65.051 Y74.901 E0.16519
G1 X64.949 Y74.901 E0.16548
G1 X64.949 Y65.051 E0.19292
G1 X55.099 Y65.051 E0.22035
G1 X55.099 Y64.949 E0.22064
G1 X64.949 Y55.099 E0.05488
G1 X65.051 Y55.099 E0.05516
G1 X65.051 Y64.949 E0.0826
G1 X74.901 Y64.949 E0.11003
G1 X74.901 Y65.051 E0.11032
G1 X65.051 Y65.051 E0.13776
G1 X65.051 Y74.901 E0.16519
G1 X64.949 Y74.901 E0.16548
G1 X64.949 Y65.051 E0.19292
G1 X55.099 Y65.051 E0.22035
G1 X55.099 Y64.949 E0.22064
G1 X64.949 Y55.099 E0.05488
G1 X65.051 Y55.099 E0.05516
G1 X65.051 Y64.949 E0.0826
G1 X74.901 Y64.949 E0.11003
G1 X74.901 Y65.051 E0.11032
G1 X65.051 Y65.051 E0.13776
G1 X65.051 Y74.901 E0.16519
G1 X64.949 Y74.901 E0.16548
G1 X64.949 Y65.051 E0.19292
G1 X55.099 Y65.051 E0.22035
G1 X55.099 Y64.949 E0.22064
G1 X64.949 Y55.099 E0.05488
G1 X65.051 Y55.099 E0.05516
G1 X65.051 Y64.949 E0.0826
G1 X74.901 Y64.949 E0.11003
G1 X74.901 Y65.051 E0.11032
G1 X65.051 Y65.051 E0.13776
G1 X65.051 Y74.901 E0.16519
G1 X64.949 Y74.901 E0.16548
G1 X64.949 Y65.051 E0.19292
G1 X55.099 Y65.051 E0.22035
G1 X55.099 Y64.949 E0.22064
G1 X64.949 Y55.099 E0.05488
G1 X65.051 Y55.099 E0.05516
G1 X65.051 Y64.949 E0.0826
G1 X74.901 Y64.949 E0.11003
G1 X74.901 Y65.051 E0.11032
G1 X65.051 Y65.051 E0.13776
G1 X65.051 Y74.901 E0.16519
G1 X64.949 Y74.901 E0.16548
G1 X64.949 Y65.051 E0.19292
G1 X55.099 Y65.051 E0.22035
G1 X55.099 Y64.949 E0.22064
G1 X64.949 Y55.099 E0.05488
G1 X65.051 Y55.099 E0.05516
G1 X65.051 Y64.949 E0.0826
G1 X74.901 Y64.949 E0.11003
G1 X74.901 Y65.051 E0.11032
G1 X65.051 Y65.051 E0.13776
G1 X65.051 Y74.901 E0.16519
G1 X64.949 Y74.901 E0.16548
G1 X64.949 Y65.051 E0.19292
G1 X55.099 Y65.051 E0.22035
G1 X55.099 Y64.949 E0.22064
G1 X64.949 Y55.099 E0.05488
G1 X65.051 Y55.099 E0.05516
G1 X65.051 Y64.949 E0.0826
G1 X74.901 Y64.949 E0.11003
G1 X74.901 Y65.051 E0.11032
G1 X65.051 Y65.051 E0.13776
G1 X65.051 Y74.901 E0.16519
G1 X64.949 Y74.901 E0.16548
G1 X64.949 Y65.051 E0.19292
G1 X55.099 Y65.051 E0.22035
G1 X55.099 Y64.949 E0.22064
G1 X64.949 Y55.099 E0.05488
G1 X65.051 Y55.099 E0.05516
G1 X65.051 Y64.949 E0.0826
G1 X74.901 Y64.949 E0.11003
G1 X74.901 Y65.051 E0.11032
G1 X65.051 Y65.051 E0.13776
G1 X65.051 Y74.901 E0.16519
G1 X64.949 Y74.901 E0.16548
G1 X64.949 Y65.051 E0.19292
G1 X55.099 Y65.051 E0.22035
G1 X55.099 Y64.949 E0.22064
G1 X64.949 Y55.099 E0.05488
G1 X65.051 Y55.099 E0.05516
G1 X65.051 Y64.949 E0.0826
G1 X74.901 Y64.949 E0.11003
G1 X74.901 Y65.051 E0.11032
G1 X65.051 Y65.051 E0.13776
G1 X65.051 Y74.901 E0.16519
G1 X64.949 Y74.901 E0.16548
G1 X64.949 Y65.051 E0.19292
G1 X55.099 Y65.051 E0.22035
G1 X55.099 Y64.949 E0.22064
G1 X64.949 Y55.099 E0.05488
G1 X65.051 Y55.099 E0.05516
G1 X65.051 Y64.949 E0.0826
G1 X74.901 Y64.949 E0.11003
G1 X74.901 Y65.051 E0.11032
G1 X65.051 Y65.051 E0.13776
G1 X65.051 Y74.901 E0.16519
G1 X64.949 Y74.901 E0.16548
G1 X64.949 Y65.051 E0.19292
G1 X55.099 Y65.051 E0.22035
G1 X55.099 Y64.949 E0.22064
G1 X64.949 Y55.099 E0.05488
G1 X65.051 Y55.099 E0.05516
G1 X65.051 Y64.949 E0.0826
G1 X74.901 Y64.949 E0.11003
G1 X74.901 Y65.051 E0.11032
G1 X65.051 Y65.051 E0.13776
G1 X65.051 Y74.901 E0.16519
G1 X64.949 Y74.901 E0.16548
G1 X64.949 Y65.051 E0.19292
G1 X55.099 Y65.051 E0.22035
G1 X55.099 Y64.949 E0.22064
G1 X64.949 Y55.099 E0.05488
G1 X65.051 Y55.099 E0.05516
G1 X65.051 Y64.949 E0.0826
G1 X74.901 Y64.949 E0.11003
G1 X74.901 Y65.051 E0.11032
G1 X65.051 Y65.051 E0.13776
G1 X65.051 Y74.901 E0.16519
G1 X64.949 Y74.901 E0.16548
G1 X64.949 Y65.051 E0.19292
G1 X55.099 Y65.051 E0.22035
G1 X55.099 Y64.949 E0.22064
G1 X64.949 Y55.099 E0.05488
G1 X65.051 Y55.099 E0.05516
G1 X65.051 Y64.949 E0.0826
G1 X74.901 Y64.949 E0.11003
G1 X74.901 Y65.051 E0.11032
G1 X65.051 Y65.051 E0.13776
G1 X65.051 Y74.901 E0.16519
G1 X64.949 Y74.901 E0.16548
G1 X64.949 Y65.051 E0.19292
G1 X55.099 Y65.051 E0.22035
G1 X55.099 Y64.949 E0.22064
G1 X64.949 Y55.099 E0.05488
G1 X65.051 Y55.099 E0.05516
G1 X65.051 Y64.949 E0.0826
G1 X74.901 Y64.949 E0.11003
G1 X74.901 Y65.051 E0.11032
G1 X65.051 Y65.051 E0.13776
G1 X65.051 Y74.901 E0.16519
G1 X64.949 Y74.901 E0.16548
G1 X64.949 Y65.051 E0.19292
G1 X55.099 Y65.051 E0.22035
G1 X55.099 Y64.949 E0.22064
G1 X64.949 Y55.099 E0.05488
G1 X65.051 Y55.099 E0.05516
G1 X65.051 Y64.949 E0.0826
G1 X74.901 Y64.949 E0.11003
G1 X74.901 Y65.051 E0.11032
G1 X65.051 Y65.051 E0.13776
G1 X65.051 Y74.901 E0.16519
G1 X64.949 Y74.901 E0.16548
G1 X64.949 Y65.051 E0.19292
G1 X55.099 Y65.051 E0.22035
G1 X55.099 Y64.949 E0.22064
G1 X64.949 Y55.099 E0.05488
G1 X65.051 Y55.099 E0.05516
G1 X65.051 Y64.949 E0.0826
G1 X74.901 Y64.949 E0.11003
G1 X74.901 Y65.051 E0.11032
G1 X65.051 Y65.051 E0.13776
G1 X65.051 Y74.901 E0.16519
G1 X64.949 Y74.901 E0.16548
G1 X64.949 Y65.051 E0.19292
G1 X55.099 Y65.051 E0.22035
G1 X55.099 Y64.949 E0.22064
G1 X64.949 Y55.099 E0.05488
G1 X65.051 Y55.099 E0.05516
G1 X65.051 Y64.949 E0.0826
G1 X74.901 Y64.949 E0.11003
G1 X74.901 Y65.051 E0.11032
G1 X65.051 Y65.051 E0.13776
G1 X65.051 Y74.901 E0.16519
G1 X64.949 Y74.901 E0.16548
G1 X64.949 Y65.051 E0.19292
G1 X55.099 Y65.051 E0.22035
G1 X55.099 Y64.949 E0.22064
G1 X64.949 Y55.099 E0.05488
G1 X65.051 Y55.099 E0.05516
G1 X65.051 Y64.949 E0.0826
G1 X74.901 Y64.949 E0.11003
G1 X74.901 Y65.051 E0.11032
G1 X65.051 Y65.051 E0.13776
G1 X65.051 Y74.901 E0.16519
G1 X64.949 Y74.901 E0.16548
G1 X64.949 Y65.051 E0.19292
G1 X55.099 Y65.051 E0.22035
G1 X55.099 Y64.949 E0.22064
G1 X64.949 Y55.099 E0.05488
G1 X65.051 Y55.099 E0.05516
G1 X65.051 Y64.949 E0.0826
G1 X74.901 Y64.949 E0.11003
G1 X74.901 Y65.051 E0.11032
G1 X65.051 Y65.051 E0.13776
G1 X65.051 Y74.901 E0.16519
G1 X64.949 Y74.901 E0.16548
G1 X64.949 Y65.051 E0.19292
G1 X55.099 Y65.051 E0.22035
G1 X55.099 Y64.949 E0.22064
G1 X64.949 Y55.099 E0.05488
G1 X65.051 Y55.099 E0.05516
G1 X65.051 Y64.949 E0.0826
G1 X74.901 Y64.949 E0.11003
G1 X74.901 Y65.051 E0.11032
G1 X65.051 Y65.051 E0.13776
G1 X65.051 Y74.901 E0.16519
G1 X64.949 Y74.901 E0.16548
G1 X64.949 Y65.051 E0.19292
G1 X55.099 Y65.051 E0.22035
G1 X55.099 Y64.949 E0.22064
G1 X64.949 Y55.099 E0.05488
G1 X65.051 Y55.099 E0.05516
G1 X65.051 Y64.949 E0.0826
G1 X74.901 Y64.949 E0.11003
G1 X74.901 Y65.051 E0.11032
G1 X65.051 Y65.051 E0.13776
G1 X65.051 Y74.901 E0.16519
G1 X64.949 Y74.901 E0.16548
G1 X64.949 Y65.051 E0.19292
G1 X55.099 Y65.051 E0.22035
G1 X55.099 Y64.949 E0.22064
G1 X64.949 Y55.099 E0.05488
G1 X65.051 Y55.099 E0.05516
G1 X65.051 Y64.949 E0.0826
G1 X74.901 Y64.949 E0.11003
G1 X74.901 Y65.051 E0.11032
G1 X65.051 Y65.051 E0.13776
G1 X65.051 Y74.901 E0.16519
G1 X64.949 Y74.901 E0.16548
G1 X64.949 Y65.051 E0.19292
G1 X55.099 Y65.051 E0.22035
G1 X55.099 Y64.949 E0.22064
G1 X64.949 Y55.099 E0.05488
G1 X65.051 Y55.099 E0.05516
G1 X65.051 Y64.949 E0.0826
G1 X74.901 Y64.949 E0.11003
G1 X74.901 Y65.051 E0.11032
G1 X65.051 Y65.051 E0.13776
G1 X65.051 Y74.901 E0.16519
G1 X64.949 Y74.901 E0.16548
G1 X64.949 Y65.051 E0.19292
G1 X55.099 Y65.051 E0.22035
G1 X55.099 Y64.949 E0.22064
G1 X64.949 Y55.099 E0.05488
G1 X65.051 Y55.099 E0.05516
G1 X65.051 Y64.949 E0.0826
G1 X74.901 Y64.949 E0.11003
G1 X74.901 Y65.051 E0.11032
G1 X65.051 Y65.051 E0.13776
G1 X65.051 Y74.901 E0.16519
G1 X64.949 Y74.901 E0.16548
G1 X64.949 Y65.051 E0.19292
G1 X55.099 Y65.051 E0.22035
G1 X55.099 Y64.949 E0.22064
G1 X64.949 Y55.099 E0.05488
G1 X65.051 Y55.099 E0.05516
G1 X65.051 Y64.949 E0.0826
G1 X74.901 Y64.949 E0.11003
G1 X74.901 Y65.051 E0.11032
G1 X65.051 Y65.051 E0.13776
G1 X65.051 Y74.901 E0.16519
G1 X64.949 Y74.901 E0.16548
G1 X64.949 Y65.051 E0.19292
G1 X55.099 Y65.051 E0.22035
G1 X55.099 Y64.949 E0.22064
G1 X64.949 Y55.099 E0.05488
G1 X65.051 Y55.099 E0.05516
G1 X65.051 Y64.949 E0.0826
G1 X74.901 Y64.949 E0.11003
G1 X74.901 Y65.051 E0.11032
G1 X65.051 Y65.051 E0.13776
G1 X65.051 Y74.901 E0.16519
G1 X64.949 Y74.901 E0.16548
G1 X64.949 Y65.051 E0.19292
G1 X55.099 Y65.051 E0.22035
G1 X55.099 Y64.949 E0.22064
G1 X64.949 Y55.099 E0.05488
G1 X65.051 Y55.099 E0.05516
G1 X65.051 Y64.949 E0.0826
G1 X74.901 Y64.949 E0.11003
G1 X74.901 Y65.051 E0.11032
G1 X65.051 Y65.051 E0.13776
G1 X65.051 Y74.901 E0.16519
G1 X64.949 Y74.901 E0.16548
G1 X64.949 Y65.051 E0.19292
G1 X55.099 Y65.051 E0.22035
G1 X55.099 Y64.949 E0.22064
G1 X64.949 Y55.099 E0.05488
G1 X65.051 Y55.099 E0.05516
G1 X65.051 Y64.949 E0.0826
G1 X74.901 Y64.949 E0.11003
G1 X74.901 Y65.051 E0.11032
G1 X65.051 Y65.051 E0.13776
G1 X65.051 Y74.901 E0.16519
G1 X64.949 Y74.901 E0.16548
G1 X64.949 Y65.051 E0.19292
G1 X55.099 Y65.051 E0.22035
G1 X55.099 Y64.949 E0.22064
G1 X64.949 Y55.099 E0.05488
G1 X65.051 Y55.099 E0.05516
G1 X65.051 Y64.949 E0.0826
G1 X74.901 Y64.949 E0.11003
G1 X74.901 Y65.051 E0.11032
G1 X65.051 Y65.051 E0.13776
G1 X65.051 Y74.901 E0.16519
G1 X64.949 Y74.901 E0.16548
G1 X64.949 Y65.051 E0.19292
G1 X55.099 Y65.051 E0.22035
G1 X55.099 Y64.949 E0.22064
G1 X64.949 Y55.099 E0.05488
G1 X65.051 Y55.099 E0.05516
G1 X65.051 Y64.949 E0.0826
G1 X74.901 Y64.949 E0.11003
G1 X74.901 Y65.051 E0.11032
G1 X65.051 Y65.051 E0.13776
G1 X65.051 Y74.901 E0.16519
G1 X64.949 Y74.901 E0.16548
G1 X64.949 Y65.051 E0.19292
G1 X55.099 Y65.051 E0.22035
G1 X55.099 Y64.949 E0.22064
G1 X64.949 Y55.099 E0.05488
G1 X65.051 Y55.099 E0.05516
G1 X65.051 Y64.949 E0.0826
G1 X74.901 Y64.949 E0.11003
G1 X74.901 Y65.051 E0.11032
G1 X65.051 Y65.051 E0.13776
G1 X65.051 Y74.901 E0.16519
G1 X64.949 Y74.901 E0.16548
G1 X64.949 Y65.051 E0.19292
G1 X55.099 Y65.051 E0.22035
G1 X55.099 Y64.949 E0.22064
G1 X64.949 Y55.099 E0.05488
G1 X65.051 Y55.099 E0.05516
G1 X65.051 Y64.949 E0.0826
G1 X74.901 Y64.949 E0.11003
G1 X74.901 Y65.051 E0.11032
G1 X65.051 Y65.051 E0.13776
G1 X65.051 Y74.901 E0.16519
G1 X64.949 Y74.901 E0.16548
G1 X64.949 Y65.051 E0.19292
G1 X55.099 Y65.051 E0.22035
G1 X55.099 Y64.949 E0.22064
G1 X64.949 Y55.099 E0.05488
G1 X65.051 Y55.099 E0.05516
G1 X65.051 Y64.949 E0.0826
G1 X74.901 Y64.949 E0.11003
G1 X74.901 Y65.051 E0.11032
G1 X65.051 Y65.051 E0.13776
G1 X65.051 Y74.901 E0.16519
G1 X64.949 Y74.901 E0.16548
G1 X64.949 Y65.051 E0.19292
G1 X55.099 Y65.051 E0.22035
G1 X55.099 Y64.949 E0.22064
G1 X64.949 Y55.099 E0.05488
G1 X65.051 Y55.099 E0.05516
G1 X65.051 Y64.949 E0.0826
G1 X74.901 Y64.949 E0.11003
G1 X74.901 Y65.051 E0.11032
G1 X65.051 Y65.051 E0.13776
G1 X65.051 Y74.901 E0.16519
G1 X64.949 Y74.901 E0.16548
G1 X64.949 Y65.051 E0.19292
G1 X55.099 Y65.051 E0.22035
G1 X55.099 Y64.949 E0.22064
G1 X64.949 Y55.099 E0.05488
G1 X65.051 Y55.099 E0.05516
G1 X65.051 Y64.949 E0.0826
G1 X74.901 Y64.949 E0.11003
G1 X74.901 Y65.051 E0.11032
G1 X65.051 Y65.051 E0.13776
G1 X65.051 Y74.901 E0.16519
G1 X64.949 Y74.901 E0.16548
G1 X64.949 Y65.051 E0.19292
G1 X55.099 Y65.051 E0.22035
G1 X55.099 Y64.949 E0.22064
G1 X64.949 Y55.099 E0.05488
G1 X65.051 Y55.099 E0.05516
G1 X65.051 Y64.949 E0.0826
G1 X74.901 Y64.949 E0.11003
G1 X74.901 Y65.051 E0.11032
G1 X65.051 Y65.051 E0.13776
G1 X65.051 Y74.901 E0.16519
G1 X64.949 Y74.901 E0.16548
G1 X64.949 Y65.051 E0.19292
G1 X55.099 Y65.051 E0.22035
G1 X55.099 Y64.949 E0.22064
G1 X64.949 Y55.099 E0.05488
G1 X65.051 Y55.099 E0.05516
G1 X65.051 Y64.949 E0.0826
G1 X74.901 Y64.949 E0.11003
G1 X74.901 Y65.051 E0.11032
G1 X65.051 Y65.051 E0.13776
G1 X65.051 Y74.901 E0.16519
G1 X64.949 Y74.901 E0.16548
G1 X64.949 Y65.051 E0.19292
G1 X55.099 Y65.051 E0.22035
G1 X55.099 Y64.949 E0.22064
G1 X64.949 Y55.099 E0.05488
G1 X65.051 Y55.099 E0.05516
G1 X65.051 Y64.949 E0.0826
G1 X74.901 Y64.949 E0.11003
G1 X74.901 Y65.051 E0.11032
G1 X65.051 Y65.051 E0.13776
G1 X65.051 Y74.901 E0.16519
G1 X64.949 Y74.901 E0.16548
G1 X64.949 Y65.051 E0.19292
G1 X55.099 Y65.051 E0.22035
G1 X55.099 Y64.949 E0.22064
G1 X64.949 Y55.099 E0.05488
G1 X65.051 Y55.099 E0.05516
G1 X65.051 Y64.949 E0.0826
G1 X74.901 Y64.949 E0.11003
G1 X74.901 Y65.051 E0.11032
G1 X65.051 Y65.051 E0.13776
G1 X65.051 Y74.901 E0.16519
G1 X64.949 Y74.901 E0.16548
G1 X64.949 Y65.051 E0.19292
G1 X55.099 Y65.051 E0.22035
G1 X55.099 Y64.949 E0.22064
G1 X64.949 Y55.099 E0.05488
G1 X65.051 Y55.099 E0.05516
G1 X65.051 Y64.949 E0.0826
G1 X74.901 Y64.949 E0.11003
G1 X74.901 Y65.051 E0.11032
G1 X65.051 Y65.051 E0.13776
G1 X65.051 Y74.901 E0.16519
G1 X64.949 Y74.901 E0.16548
G1 X64.949 Y65.051 E0.19292
G1 X55.099 Y65.051 E0.22035
G1 X55.099 Y64.949 E0.22064
G1 X64.949 Y55.099 E0.05488
G1 X65.051 Y55.099 E0.05516
G1 X65.051 Y64.949 E0.0826
G1 X74.901 Y64.949 E0.11003
G1 X74.901 Y65.051 E0.11032
G1 X65.051 Y65.051 E0.13776
G1 X65.051 Y74.901 E0.16519
G1 X64.949 Y74.901 E0.16548
G1 X64.949 Y65.051 E0.19292
G1 X55.099 Y65.051 E0.22035
G1 X55.099 Y64.949 E0.22064
G1 X64.949 Y55.099 E0.05488
G1 X65.051 Y55.099 E0.05516
G1 X65.051 Y64.949 E0.0826
G1 X74.901 Y64.949 E0.11003
G1 X74.901 Y65.051 E0.11032
G1 X65.051 Y65.051 E0.13776
G1 X65.051 Y74.901 E0.16519
G1 X64.949 Y74.901 E0.16548
G1 X64.949 Y65.051 E0.19292
G1 X55.099 Y65.051 E0.22035
G1 X55.099 Y64.949 E0.22064
G1 X64.949 Y55.099 E0.05488
G1 X65.051 Y55.099 E0.05516
G1 X65.051 Y64.949 E0.0826
G1 X74.901 Y64.949 E0.11003
G1 X74.901 Y65.051 E0.11032
G1 X65.051 Y65.051 E0.13776
G1 X65.051 Y74.901 E0.16519
G1 X64.949 Y74.901 E0.16548
G1 X64.949 Y65.051 E0.19292
G1 X55.099 Y65.051 E0.22035
G1 X55.099 Y64.949 E0.22064
G1 X64.949 Y55.099 E0.05488
G1 X65.051 Y55.099 E0.05516
G1 X65.051 Y64.949 E0.0826
G1 X74.901 Y64.949 E0.11003
G1 X74.901 Y65.051 E0.11032
G1 X65.051 Y65.051 E0.13776
G1 X65.051 Y74.901 E0.16519
G1 X64.949 Y74.901 E0.16548
G1 X64.949 Y65.051 E0.19292
G1 X55.099 Y65.051 E0.22035
G1 X55.099 Y64.949 E0.22064
G1 X64.949 Y55.099 E0.05488
G1 X65.051 Y55.099 E0.05516
G1 X65.051 Y64.949 E0.0826
G1 X74.901 Y64.949 E0.11003
G1 X74.901 Y65.051 E0.11032
G1 X65.051 Y65.051 E0.13776
G1 X65.051 Y74.901 E0.16519
G1 X64.949 Y74.901 E0.16548
G1 X64.949 Y65.051 E0.19292
G1 X55.099 Y65.051 E0.22035
G1 X55.099 Y64.949 E0.22064
G1 X64.949 Y55.099 E0.05488
G1 X65.051 Y55.099 E0.05516
G1 X65.051 Y64.949 E0.0826
G1 X74.901 Y64.949 E0.11003
G1 X74.901 Y65.051 E0.11032
G1 X65.051 Y65.051 E0.13776
G1 X65.051 Y74.901 E0.16519
G1 X64.949 Y74.901 E0.16548
G1 X64.949 Y65.051 E0.19292
G1 X55.099 Y65.051 E0.22035
G1 X55.099 Y64.949 E0.22064
G1 X64.949 Y55.099 E0.05488
G1 X65.051 Y55.099 E0.05516
G1 X65.051 Y64.949 E0.0826
G1 X74.901 Y64.949 E0.11003
G1 X74.901 Y65.051 E0.11032
G1 X65.051 Y65.051 E0.13776
G1 X65.051 Y74.901 E0.16519
G1 X64.949 Y74.901 E0.16548
G1 X64.949 Y65.051 E0.19292
G1 X55.099 Y65.051 E0.22035
G1 X55.099 Y64.949 E0.22064
G1 X64.949 Y55.099 E0.05488
G1 X65.051 Y55.099 E0.05516
G1 X65.051 Y64.949 E0.0826
G1 X74.901 Y64.949 E0.11003
G1 X74.901 Y65.051 E0.11032
G1 X65.051 Y65.051 E0.13776
G1 X65.051 Y74.901 E0.16519
G1 X64.949 Y74.901 E0.16548
G1 X64.949 Y65.051 E0.19292
G1 X55.099 Y65.051 E0.22035
G1 X55.099 Y64.949 E0.22064
G1 X64.949 Y55.099 E0.05488
G1 X65.051 Y55.099 E0.05516
G1 X65.051 Y64.949 E0.0826
G1 X74.901 Y64.949 E0.11003
G1 X74.901 Y65.051 E0.11032
G1 X65.051 Y65.051 E0.13776
G1 X65.051 Y74.901 E0.16519
G1 X64.949 Y74.901 E0.16548
G1 X64.949 Y65.051 E0.19292
G1 X55.099 Y65.051 E0.22035
G1 X55.099 Y64.949 E0.22064
G1 X64.949 Y55.099 E0.05488
G1 X65.051 Y55.099 E0.05516
G1 X65.051 Y64.949 E0.0826
