;FLAVOR:RepRap
;TIME:1352
;Generated with Cura_SteamEngine 2.3.1
M104 S200
M109 S200
G28 ;Home
;LAYER_COUNT:200
;LAYER:0
M107
G0 F450 X21.645 Y23.667 Z.1
;TYPE:WALL-INNER
G1 X23.664 Y21.649 E0.00795
G1 X25.774 Y19.73 E0.0159
G1 X27.97 Y17.917 E0.02383
G1 X30.255 Y16.208 E0.03178
G1 X32.621 Y14.606 E0.03974
G1 X35.048 Y13.125 E0.04766
G1 X37.551 Y11.76 E0.0556
G1 X40.118 Y10.513 E0.06355
G1 X42.74 Y9.39 E0.07149
G1 X45.406 Y8.396 E0.07942
G1 X48.124 Y7.526 E0.08737
G1 X50.883 Y6.786 E0.09532
G1 X53.658 Y6.183 E0.10323
G1 X56.475 Y5.711 E0.11119
G1 X59.312 Y5.371 E0.11915
G1 X62.149 Y5.168 E0.12707
G1 X65 Y5.1 E0.13502
G1 X67.851 Y5.168 E0.14296
G1 X70.688 Y5.371 E0.15088
G1 X73.525 Y5.711 E0.15884
G1 X76.342 Y6.183 E0.1668
G1 X79.117 Y6.786 E0.17471
G1 X81.876 Y7.526 E0.18267
G1 X84.591 Y8.395 E0.19061
G1 X87.26 Y9.39 E0.19854
G1 X89.882 Y10.513 E0.20649
G1 X92.447 Y11.759 E0.21443
G1 X94.952 Y13.125 E0.22238
G1 X97.379 Y14.606 E0.2303
G1 X99.744 Y16.207 E0.23825
G1 X102.029 Y17.916 E0.2462
G1 X104.223 Y19.727 E0.25413
G1 X106.335 Y21.648 E0.26208
G1 X108.354 Y23.666 E0.27003
G1 X110.266 Y25.77 E0.27795
G1 X112.084 Y27.972 E0.2859
G1 X113.794 Y30.255 E0.29385
G1 X115.391 Y32.614 E0.30178
G1 X116.874 Y35.049 E0.30973
G1 X118.243 Y37.556 E0.31768
G1 X119.485 Y40.112 E0.3256
G1 X120.608 Y42.735 E0.33355
G1 X121.607 Y45.412 E0.3415
G1 X122.473 Y48.12 E0.34942
G1 X123.212 Y50.88 E0.35738
G1 X123.817 Y53.664 E0.36532
G1 X124.29 Y56.472 E0.37325
G1 X124.627 Y59.294 E0.38117
G1 X124.831 Y62.136 E0.3891
G1 X124.901 Y64.997 E0.39708
G1 X124.831 Y67.86 E0.40505
G1 X124.627 Y70.701 E0.41299
G1 X124.29 Y73.527 E0.42092
G1 X123.818 Y76.333 E0.42884
G1 X123.211 Y79.12 E0.43679
G1 X122.473 Y81.877 E0.44474
G1 X121.608 Y84.585 E0.45266
G1 X120.609 Y87.262 E0.46062
G1 X119.485 Y89.887 E0.46857
G1 X118.244 Y92.442 E0.47648
G1 X116.874 Y94.95 E0.48444
G1 X115.392 Y97.385 E0.49238
G1 X113.797 Y99.74 E0.50031
G1 X112.085 Y102.027 E0.50826
G1 X110.269 Y104.227 E0.51621
G1 X108.355 Y106.333 E0.52414
G1 X106.336 Y108.351 E0.53209
G1 X104.226 Y110.27 E0.54003
G1 X102.03 Y112.083 E0.54796
G1 X99.748 Y113.79 E0.5559
G1 X97.379 Y115.395 E0.56387
G1 X94.952 Y116.874 E0.57179
G1 X92.449 Y118.24 E0.57973
G1 X89.882 Y119.487 E0.58768
G1 X87.26 Y120.61 E0.59563
G1 X84.594 Y121.604 E0.60355
G1 X81.876 Y122.474 E0.6115
G1 X79.117 Y123.214 E0.61946
G1 X76.342 Y123.817 E0.62737
G1 X73.525 Y124.289 E0.63533
G1 X70.688 Y124.629 E0.64329
G1 X67.851 Y124.832 E0.65121
G1 X65 Y124.9 E0.65915
G1 X62.149 Y124.832 E0.6671
G1 X59.312 Y124.629 E0.67502
G1 X56.475 Y124.289 E0.68298
G1 X53.658 Y123.817 E0.69093
G1 X50.883 Y123.214 E0.69884
G1 X48.124 Y122.474 E0.7068
G1 X45.406 Y121.604 E0.71475
G1 X42.74 Y120.61 E0.72268
G1 X40.118 Y119.487 E0.73062
G1 X37.551 Y118.24 E0.73857
G1 X35.048 Y116.875 E0.74651
G1 X32.621 Y115.394 E0.75443
G1 X30.252 Y113.79 E0.7624
G1 X27.97 Y112.083 E0.77034
G1 X25.774 Y110.27 E0.77827
G1 X23.664 Y108.351 E0.78622
G1 X21.645 Y106.333 E0.79417
G1 X19.731 Y104.227 E0.8021
G1 X17.915 Y102.027 E0.81004
G1 X16.203 Y99.74 E0.818
G1 X14.608 Y97.385 E0.82592
G1 X13.125 Y94.95 E0.83387
G1 X11.756 Y92.442 E0.84182
G1 X10.515 Y89.887 E0.84974
G1 X9.391 Y87.262 E0.85769
G1 X8.392 Y84.585 E0.86565
G1 X7.526 Y81.877 E0.87357
G1 X6.788 Y79.12 E0.88152
G1 X6.182 Y76.333 E0.88946
G1 X5.71 Y73.527 E0.89739
G1 X5.373 Y70.701 E0.90532
G1 X5.169 Y67.86 E0.91325
G1 X5.099 Y65.003 E0.92121
G1 X5.169 Y62.14 E0.92919
G1 X5.373 Y59.299 E0.93712
G1 X5.71 Y56.473 E0.94505
G1 X6.182 Y53.667 E0.95298
G1 X6.789 Y50.88 E0.96092
G1 X7.527 Y48.123 E0.96887
G1 X8.392 Y45.415 E0.97679
G1 X9.391 Y42.738 E0.98475
G1 X10.515 Y40.113 E0.99271
G1 X11.756 Y37.558 E1.00062
G1 X13.126 Y35.05 E1.00858
G1 X14.608 Y32.615 E1.01652
G1 X16.203 Y30.26 E1.02444
G1 X17.915 Y27.973 E1.0324
G1 X19.731 Y25.773 E1.04035
G1 X21.645 Y23.667 E1.04827
G0 X21.648 Y23.666
G1 X19.734 Y25.773 E1.04857
G1 X17.917 Y27.975 E1.04887
G1 X16.206 Y30.259 E1.0491
G1 X14.611 Y32.614 E1.04935
G1 X13.127 Y35.051 E1.04953
G1 X11.759 Y37.556 E1.0497
G1 X10.516 Y40.115 E1.04994
G1 X9.393 Y42.738 E1.05018
G1 X8.396 Y45.412 E1.05047
G1 X7.529 Y48.123 E1.05078
G1 X6.791 Y50.877 E1.05102
G1 X6.184 Y53.667 E1.05126
G1 X5.711 Y56.475 E1.0515
G1 X5.374 Y59.297 E1.05168
G1 X5.171 Y62.138 E1.05186
G1 X5.102 Y65 E1.05216
G1 X5.171 Y67.862 E1.05246
G1 X5.374 Y70.703 E1.0527
G1 X5.711 Y73.525 E1.05294
G1 X6.184 Y76.333 E1.05318
G1 X6.791 Y79.123 E1.05354
G1 X7.529 Y81.877 E1.05396
G1 X8.396 Y84.588 E1.05444
G1 X9.393 Y87.262 E1.05486
G1 X10.516 Y89.885 E1.05509
G1 X11.759 Y92.444 E1.05539
G1 X13.127 Y94.949 E1.05569
G1 X14.611 Y97.386 E1.05599
G1 X16.206 Y99.741 E1.05635
G1 X17.917 Y102.025 E1.05664
G1 X19.734 Y104.227 E1.05694
G1 X21.648 Y106.334 E1.0573
G1 X23.664 Y108.349 E1.05759
G1 X25.777 Y110.27 E1.05789
G1 X27.973 Y112.083 E1.05825
G1 X30.255 Y113.79 E1.05861
G1 X32.619 Y115.391 E1.0589
G1 X35.051 Y116.874 E1.0592
G1 X37.551 Y118.238 E1.05949
G1 X40.12 Y119.486 E1.05973
G1 X42.739 Y120.608 E1.05997
G1 X45.406 Y121.602 E1.06021
G1 X48.126 Y122.472 E1.06045
G1 X50.88 Y123.21 E1.0608
G1 X53.662 Y123.815 E1.06128
G1 X56.477 Y124.288 E1.06164
G1 X59.31 Y124.628 E1.06181
G1 X62.147 Y124.83 E1.062
G1 X65 Y124.898 E1.06224
G1 X67.853 Y124.83 E1.06248
G1 X70.69 Y124.628 E1.0626
G1 X73.523 Y124.288 E1.06271
G1 X76.338 Y123.815 E1.06307
G1 X79.12 Y123.21 E1.0635
G1 X81.874 Y122.472 E1.06379
G1 X84.594 Y121.602 E1.06403
G1 X87.261 Y120.608 E1.06421
G1 X89.88 Y119.486 E1.06438
G1 X92.449 Y118.238 E1.06457
G1 X94.949 Y116.874 E1.0648
G1 X97.381 Y115.391 E1.0651
G1 X99.745 Y113.79 E1.06539
G1 X102.027 Y112.083 E1.06575
G1 X104.223 Y110.27 E1.0661
G1 X106.336 Y108.349 E1.0664
G1 X108.352 Y106.334 E1.0667
G1 X110.266 Y104.227 E1.06706
G1 X112.083 Y102.025 E1.06735
G1 X113.794 Y99.741 E1.06765
G1 X115.389 Y97.386 E1.06801
G1 X116.873 Y94.949 E1.06825
G1 X118.241 Y92.444 E1.06848
G1 X119.484 Y89.885 E1.06878
G1 X120.607 Y87.262 E1.06901
G1 X121.604 Y84.588 E1.06943
G1 X122.471 Y81.877 E1.06985
G1 X123.209 Y79.123 E1.07015
G1 X123.816 Y76.333 E1.07046
G1 X124.289 Y73.525 E1.0707
G1 X124.626 Y70.703 E1.07093
G1 X124.829 Y67.862 E1.07117
G1 X124.898 Y65 E1.07153
G1 X124.829 Y62.138 E1.07189
G1 X124.626 Y59.297 E1.07219
G1 X124.289 Y56.475 E1.07256
G1 X123.816 Y53.667 E1.07292
G1 X123.209 Y50.877 E1.07322
G1 X122.471 Y48.123 E1.07351
G1 X121.604 Y45.412 E1.07381
G1 X120.607 Y42.738 E1.0741
G1 X119.484 Y40.115 E1.07446
G1 X118.241 Y37.556 E1.07476
G1 X116.873 Y35.051 E1.07499
G1 X115.389 Y32.614 E1.07518
G1 X113.794 Y30.259 E1.07546
G1 X112.083 Y27.975 E1.07589
G1 X110.266 Y25.773 E1.07624
G1 X108.352 Y23.666 E1.07648
G1 X106.336 Y21.651 E1.07672
G1 X104.223 Y19.73 E1.07708
G1 X102.027 Y17.917 E1.07738
G1 X99.745 Y16.21 E1.07767
G1 X97.381 Y14.609 E1.07803
G1 X94.949 Y13.126 E1.07839
G1 X92.449 Y11.762 E1.07874
G1 X89.88 Y10.514 E1.07904
G1 X87.261 Y9.392 E1.07927
G1 X84.594 Y8.398 E1.07963
G1 X81.874 Y7.528 E1.07999
G1 X79.12 Y6.79 E1.0804
G1 X76.338 Y6.185 E1.08089
G1 X73.523 Y5.712 E1.08119
G1 X70.69 Y5.372 E1.08142
G1 X67.853 Y5.17 E1.08166
G1 X65 Y5.102 E1.0819
G1 X62.147 Y5.17 E1.08208
G1 X59.31 Y5.372 E1.08215
G1 X56.477 Y5.712 E1.08226
G1 X53.662 Y6.185 E1.08262
G1 X50.88 Y6.79 E1.08316
G1 X48.126 Y7.528 E1.08357
G1 X45.406 Y8.398 E1.08381
G1 X42.739 Y9.392 E1.08405
G1 X40.12 Y10.514 E1.08428
G1 X37.551 Y11.762 E1.08452
G1 X35.051 Y13.126 E1.08476
G1 X32.619 Y14.609 E1.08506
G1 X30.255 Y16.21 E1.08536
G1 X27.973 Y17.917 E1.08559
G1 X25.777 Y19.73 E1.08583
G1 X23.664 Y21.651 E1.08607
G1 X21.648 Y23.666 E1.0863
G0 X21.696 Y23.712
;TYPE:WALL-OUTER
G1 X19.784 Y25.816 E1.09422
G1 X17.969 Y28.016 E1.10217
G1 X16.26 Y30.297 E1.1101
G1 X14.667 Y32.65 E1.11802
G1 X13.184 Y35.084 E1.12596
G1 X11.818 Y37.586 E1.1339
G1 X10.576 Y40.142 E1.14182
G1 X9.454 Y42.763 E1.14976
G1 X8.458 Y45.434 E1.1577
G1 X7.592 Y48.142 E1.16562
G1 X6.855 Y50.893 E1.17355
G1 X6.249 Y53.68 E1.1815
G1 X5.776 Y56.484 E1.18942
G1 X5.44 Y59.303 E1.19732
G1 X5.237 Y62.141 E1.20525
G1 X5.168 Y65 E1.21322
G1 X5.237 Y67.859 E1.22118
G1 X5.44 Y70.697 E1.22911
G1 X5.776 Y73.516 E1.23702
G1 X6.249 Y76.32 E1.24494
G1 X6.855 Y79.107 E1.25288
G1 X7.592 Y81.858 E1.26081
G1 X8.458 Y84.566 E1.26873
G1 X9.454 Y87.237 E1.27667
G1 X10.576 Y89.858 E1.28462
G1 X11.818 Y92.414 E1.29253
G1 X13.184 Y94.916 E1.30047
G1 X14.667 Y97.35 E1.30841
G1 X16.26 Y99.703 E1.31633
G1 X17.969 Y101.984 E1.32427
G1 X19.784 Y104.184 E1.33221
G1 X21.696 Y106.288 E1.34013
G1 X23.71 Y108.301 E1.34806
G1 X25.82 Y110.22 E1.35601
G1 X28.014 Y112.031 E1.36393
G1 X30.293 Y113.736 E1.37186
G1 X32.655 Y115.335 E1.3798
G1 X35.084 Y116.817 E1.38773
G1 X37.581 Y118.179 E1.39565
G1 X40.147 Y119.426 E1.4036
G1 X42.764 Y120.547 E1.41153
G1 X45.428 Y121.54 E1.41945
G1 X48.145 Y122.409 E1.4274
G1 X50.896 Y123.146 E1.43533
G1 X53.674 Y123.75 E1.44325
G1 X56.486 Y124.223 E1.45119
G1 X59.316 Y124.562 E1.45913
G1 X62.15 Y124.764 E1.46705
G1 X65 Y124.832 E1.47499
G1 X67.85 Y124.764 E1.48293
G1 X70.684 Y124.562 E1.49084
G1 X73.514 Y124.223 E1.49878
G1 X76.326 Y123.75 E1.50672
G1 X79.104 Y123.146 E1.51464
G1 X81.855 Y122.409 E1.52258
G1 X84.572 Y121.54 E1.53052
G1 X87.236 Y120.547 E1.53844
G1 X89.853 Y119.426 E1.54637
G1 X92.419 Y118.179 E1.55432
G1 X94.916 Y116.817 E1.56224
G1 X97.345 Y115.335 E1.57017
G1 X99.707 Y113.736 E1.57811
G1 X101.986 Y112.031 E1.58604
G1 X104.18 Y110.22 E1.59397
G1 X106.29 Y108.301 E1.60191
G1 X108.304 Y106.288 E1.60984
G1 X110.216 Y104.184 E1.61776
G1 X112.031 Y101.984 E1.62571
G1 X113.74 Y99.703 E1.63365
G1 X115.333 Y97.35 E1.64156
G1 X116.816 Y94.916 E1.6495
G1 X118.182 Y92.414 E1.65744
G1 X119.424 Y89.858 E1.66536
G1 X120.546 Y87.237 E1.6733
G1 X121.542 Y84.566 E1.68124
G1 X122.408 Y81.858 E1.68916
G1 X123.145 Y79.107 E1.69709
G1 X123.751 Y76.32 E1.70504
G1 X124.224 Y73.516 E1.71296
G1 X124.56 Y70.697 E1.72087
G1 X124.763 Y67.859 E1.72879
G1 X124.832 Y65 E1.73676
G1 X124.763 Y62.141 E1.74472
G1 X124.56 Y59.303 E1.75265
G1 X124.224 Y56.484 E1.76056
G1 X123.751 Y53.68 E1.76848
G1 X123.145 Y50.893 E1.77642
G1 X122.408 Y48.142 E1.78436
G1 X121.542 Y45.434 E1.79228
G1 X120.546 Y42.763 E1.80022
G1 X119.424 Y40.142 E1.80816
G1 X118.182 Y37.586 E1.81607
G1 X116.816 Y35.084 E1.82401
G1 X115.333 Y32.65 E1.83195
G1 X113.74 Y30.297 E1.83987
G1 X112.031 Y28.016 E1.84781
G1 X110.216 Y25.816 E1.85575
G1 X108.304 Y23.712 E1.86367
G1 X106.29 Y21.699 E1.8716
G1 X104.18 Y19.78 E1.87955
G1 X101.986 Y17.969 E1.88747
G1 X99.707 Y16.264 E1.8954
G1 X97.345 Y14.665 E1.90335
G1 X94.916 Y13.183 E1.91127
G1 X92.419 Y11.821 E1.9192
G1 X89.853 Y10.574 E1.92714
G1 X87.236 Y9.453 E1.93507
G1 X84.572 Y8.46 E1.94299
G1 X81.855 Y7.591 E1.95094
G1 X79.104 Y6.854 E1.95887
G1 X76.326 Y6.25 E1.96679
G1 X73.514 Y5.777 E1.97473
G1 X70.684 Y5.438 E1.98267
G1 X67.85 Y5.236 E1.99059
G1 X65 Y5.168 E1.99853
G1 X62.15 Y5.236 E2.00647
G1 X59.316 Y5.438 E2.01438
G1 X56.486 Y5.777 E2.02232
G1 X53.674 Y6.25 E2.03027
G1 X50.896 Y6.854 E2.03818
G1 X48.145 Y7.591 E2.04612
G1 X45.428 Y8.46 E2.05406
G1 X42.764 Y9.453 E2.06198
G1 X40.147 Y10.574 E2.06991
G1 X37.581 Y11.821 E2.07786
G1 X35.084 Y13.183 E2.08578
G1 X32.655 Y14.665 E2.09371
G1 X30.293 Y16.264 E2.10165
G1 X28.014 Y17.969 E2.10958
G1 X25.82 Y19.78 E2.11751
G1 X23.71 Y21.699 E2.12545
G1 X21.696 Y23.712 E2.13338
G0 X21.598 Y23.62
G1 X23.617 Y21.602 E2.14134
G1 X25.732 Y19.679 E2.1493
G1 X27.93 Y17.864 E2.15724
G1 X30.215 Y16.155 E2.16519
G1 X32.584 Y14.551 E2.17316
G1 X35.016 Y13.068 E2.18109
G1 X37.519 Y11.702 E2.18903
G1 X40.092 Y10.452 E2.197
G1 X42.714 Y9.329 E2.20495
G1 X45.386 Y8.333 E2.21289
G1 X48.107 Y7.462 E2.22085
G1 X50.866 Y6.723 E2.2288
G1 X53.647 Y6.118 E2.23673
G1 X56.467 Y5.645 E2.2447
G1 X59.304 Y5.305 E2.25266
G1 X62.144 Y5.102 E2.26059
G1 X65 Y5.034 E2.26855
G1 X67.856 Y5.102 E2.2765
G1 X70.696 Y5.305 E2.28443
G1 X73.533 Y5.645 E2.29239
G1 X76.353 Y6.118 E2.30036
G1 X79.134 Y6.723 E2.30829
G1 X81.893 Y7.462 E2.31624
G1 X84.614 Y8.333 E2.3242
G1 X87.286 Y9.329 E2.33214
G1 X89.908 Y10.452 E2.34009
G1 X92.479 Y11.701 E2.34805
G1 X94.984 Y13.068 E2.356
G1 X97.416 Y14.551 E2.36393
G1 X99.784 Y16.154 E2.3719
G1 X102.069 Y17.863 E2.37985
G1 X104.267 Y19.678 E2.38779
G1 X106.382 Y21.601 E2.39575
G1 X108.401 Y23.619 E2.4037
G1 X110.317 Y25.728 E2.41164
G1 X112.137 Y27.932 E2.4196
G1 X113.849 Y30.218 E2.42756
G1 X115.445 Y32.577 E2.43549
G1 X116.931 Y35.017 E2.44345
G1 X118.301 Y37.524 E2.45141
G1 X119.546 Y40.086 E2.45934
G1 X120.67 Y42.712 E2.4673
G1 X121.67 Y45.392 E2.47527
G1 X122.537 Y48.103 E2.48319
G1 X123.275 Y50.863 E2.49115
G1 X123.882 Y53.653 E2.49911
G1 X124.356 Y56.464 E2.50705
G1 X124.693 Y59.289 E2.51497
G1 X124.897 Y62.134 E2.52292
G1 X124.967 Y64.999 E2.5309
G1 X124.897 Y67.865 E2.53889
G1 X124.693 Y70.709 E2.54683
G1 X124.356 Y73.535 E2.55476
G1 X123.882 Y76.347 E2.5627
G1 X123.275 Y79.137 E2.57065
G1 X122.536 Y81.897 E2.57861
G1 X121.67 Y84.608 E2.58654
G1 X120.67 Y87.288 E2.59451
G1 X119.546 Y89.913 E2.60246
G1 X118.302 Y92.474 E2.61039
G1 X116.932 Y94.982 E2.61835
G1 X115.446 Y97.422 E2.62631
G1 X113.85 Y99.78 E2.63424
G1 X112.138 Y102.067 E2.6422
G1 X110.318 Y104.271 E2.65016
G1 X108.402 Y106.38 E2.6581
G1 X106.383 Y108.398 E2.66605
G1 X104.268 Y110.321 E2.67401
G1 X102.07 Y112.136 E2.68195
G1 X99.785 Y113.845 E2.6899
G1 X97.416 Y115.449 E2.69787
G1 X94.984 Y116.932 E2.70581
G1 X92.481 Y118.298 E2.71375
G1 X89.908 Y119.548 E2.72172
G1 X87.286 Y120.671 E2.72966
G1 X84.614 Y121.667 E2.7376
G1 X81.893 Y122.538 E2.74556
G1 X79.134 Y123.277 E2.75352
G1 X76.353 Y123.882 E2.76145
G1 X73.533 Y124.355 E2.76941
G1 X70.696 Y124.695 E2.77737
G1 X67.856 Y124.898 E2.7853
G1 X65 Y124.966 E2.79326
G1 X62.144 Y124.898 E2.80122
G1 X59.304 Y124.695 E2.80915
G1 X56.467 Y124.355 E2.81711
G1 X53.647 Y123.882 E2.82507
G1 X50.866 Y123.277 E2.833
G1 X48.107 Y122.538 E2.84096
G1 X45.386 Y121.667 E2.84892
G1 X42.714 Y120.671 E2.85686
G1 X40.092 Y119.548 E2.8648
G1 X37.519 Y118.298 E2.87277
G1 X35.016 Y116.932 E2.88071
G1 X32.584 Y115.449 E2.88865
G1 X30.215 Y113.845 E2.89662
G1 X27.93 Y112.136 E2.90457
G1 X25.732 Y110.321 E2.91251
G1 X23.617 Y108.398 E2.92047
G1 X21.598 Y106.38 E2.92842
G1 X19.682 Y104.271 E2.93636
G1 X17.862 Y102.067 E2.94432
G1 X16.15 Y99.78 E2.95228
G1 X14.554 Y97.422 E2.96021
G1 X13.068 Y94.982 E2.96817
G1 X11.698 Y92.474 E2.97613
G1 X10.454 Y89.913 E2.98406
G1 X9.33 Y87.288 E2.99201
G1 X8.33 Y84.608 E2.99998
G1 X7.463 Y81.897 E3.00791
G1 X6.725 Y79.137 E3.01587
G1 X6.118 Y76.347 E3.02382
G1 X5.644 Y73.535 E3.03176
G1 X5.307 Y70.709 E3.03969
G1 X5.103 Y67.865 E3.04763
G1 X5.033 Y65.001 E3.05561
G1 X5.103 Y62.135 E3.0636
G1 X5.307 Y59.291 E3.07154
G1 X5.644 Y56.465 E3.07947
G1 X6.118 Y53.653 E3.08741
G1 X6.725 Y50.863 E3.09537
G1 X7.464 Y48.103 E3.10333
G1 X8.33 Y45.392 E3.11125
G1 X9.33 Y42.712 E3.11922
G1 X10.454 Y40.087 E3.12718
G1 X11.698 Y37.526 E3.13511
G1 X13.068 Y35.018 E3.14307
G1 X14.554 Y32.578 E3.15103
G1 X16.15 Y30.22 E3.15896
G1 X17.862 Y27.933 E3.16691
G1 X19.682 Y25.729 E3.17488
G1 X21.598 Y23.62 E3.18281
;TYPE:WALL-INNER
G1 X23.664 Y21.649 E3.19076
G1 X25.774 Y19.73 E3.19871
G1 X27.97 Y17.917 E3.20664
G1 X30.255 Y16.208 E3.21459
G1 X32.621 Y14.606 E3.22255
G1 X35.048 Y13.125 E3.23047
G1 X37.551 Y11.76 E3.23841
G1 X40.118 Y10.513 E3.24636
G1 X42.74 Y9.39 E3.25431
G1 X45.406 Y8.396 E3.26223
G1 X48.124 Y7.526 E3.27018
G1 X50.883 Y6.786 E3.27814
G1 X53.658 Y6.183 E3.28605
G1 X56.475 Y5.711 E3.294
G1 X59.312 Y5.371 E3.30196
G1 X62.149 Y5.168 E3.30989
G1 X65 Y5.1 E3.31783
G1 X67.851 Y5.168 E3.32577
G1 X70.688 Y5.371 E3.3337
G1 X73.525 Y5.711 E3.34166
G1 X76.342 Y6.183 E3.34961
G1 X79.117 Y6.786 E3.35752
G1 X81.876 Y7.526 E3.36548
G1 X84.591 Y8.395 E3.37342
G1 X87.26 Y9.39 E3.38135
G1 X89.882 Y10.513 E3.3893
G1 X92.447 Y11.759 E3.39724
G1 X94.952 Y13.125 E3.40519
G1 X97.379 Y14.606 E3.41311
G1 X99.744 Y16.207 E3.42107
G1 X102.029 Y17.916 E3.42901
G1 X104.223 Y19.727 E3.43694
G1 X106.335 Y21.648 E3.44489
G1 X108.354 Y23.666 E3.45284
G1 X110.266 Y25.77 E3.46076
G1 X112.084 Y27.972 E3.46872
G1 X113.794 Y30.255 E3.47666
